app/assets/images/heroicon/mini/funnel.svg

<svg width="20" height="20" viewBox="0 0 20 20" fill="none" xmlns="http://www.w3.org/2000/svg">
<path fill-rule="evenodd" clip-rule="evenodd" d="M3.24392 1.55412C5.44229 1.18958 7.69929 1 10 1C12.3007 1 14.5577 1.18958 16.7561 1.55412C17.4827 1.6746 18 2.30503 18 3.02709V4.62868C18 5.22542 17.7629 5.79771 17.341 6.21967L13.2197 10.341C13.079 10.4816 13 10.6724 13 10.8713V13.6496C13 14.5753 12.5726 15.4492 11.8418 16.0176L8.21046 18.842C7.98435 19.0179 7.67781 19.0496 7.42049 18.9237C7.16316 18.7979 7 18.5364 7 18.25V10.8713C7 10.6724 6.92098 10.4816 6.78033 10.341L2.65901 6.21967C2.23705 5.79771 2 5.22542 2 4.62868V3.02709C2 2.30502 2.51735 1.6746 3.24392 1.55412Z" fill="#0F172A"/>
</svg>

<svg xmlns="http://www.w3.org/2000/svg" viewBox="0 0 20 20" fill="currentColor" aria-hidden="true">
  <path fill-rule="evenodd" d="M3.244 1.554A41.277 41.277 0 0110 1c2.3 0 4.558.19 6.756.554A1.49 1.49 0 0118 3.027V4.63a2.25 2.25 0 01-.659 1.59l-4.121 4.122a.75.75 0 00-.22.53v2.779a3 3 0 01-1.158 2.368L8.21 18.842A.75.75 0 017 18.25v-7.379a.75.75 0 00-.22-.53L2.66 6.22A2.25 2.25 0 012 4.629V3.027a1.49 1.49 0 011.244-1.473z" clip-rule="evenodd"/>
</svg>
